X:1
T:Title
%%score { 1 | 2 }
L:1/8
M:4/4
K:D
V:1 treble nm="Grand Piano"
V:2 bass 
V:1
 z4 z2[Q:1/4=100] [DF][EG] | [FA]2 [FA]2 [FA][Fd][Gc][GB] | [FA]2 [GB]2 [FA]2 [EG][DF] | %3
 [CE]2 [CE]2 EFGA | [GB]2 [FA]2 [DF]2 [DF][EG] | [FA]2 [Fd]2 [Fd][FA]FF | G2 B2 B4 | %7
 d>d dB [FA][DF][FA][Fd] | [Ge]2 [Gc]2 [Fd]4 | [FA]>[EG] [DF][EG] [FA] .[Fd]3 | %10
 [Gc][Gc] [Gc]>[GB] [EGc]4 | [EG]>[DF] [CE][DF] [EG] .[Gc]3 | [Ge][Gd] [Gc]>[CGB] [DFA]4 | %13
 [Fd]>[Fd] [Fd][Ge] [Fd][FA][DF][DF] | [DG]2 [CA]2 [DB]4 | d>d dB [FA][DF][FA][Fd] | %16
[M:8/4] [Ge]2 [Gc]2 [Fd]4 z8 |] %17
V:2
 z4 z2 [D,A,][D,A,] | [D,D]2 [D,D]2 [D,D][D,A,][D,B,][D,C] | [D,D]2 [D,D]2 [D,D]2 [C,A,][D,A,] | %3
 [A,,A,]2 [A,,A,]2[K:treble] [A,C][A,D][A,E][A,F] | [D,D]2 [D,D]2 [D,A,]2 [D,A,][D,A,] | %5
 [D,D]2 [D,A,]2 [D,A,][D,D][D,A,D][D,A,D] | [G,B,D]2 [G,DG]2 [G,DG]4 | %7
 [G,B,G]>[G,B,G] [G,B,G][G,DG][K:bass] [D,D][D,A,][D,D][D,A,] | [A,,A,]2 [A,,A,]2 [D,A,]4 | %9
 [D,D]>[D,A,] [D,A,][D,A,] [D,D] .[D,A,]3 | [E,A,][E,A,] [E,A,]>[E,A,] A,,4 | %11
 [A,,A,]>[A,,A,] [A,,A,][A,,A,] [A,,A,] .[A,,A,]3 | [A,,C][A,,B,] [A,,A,]>A,, D,4 | %13
 [D,A,]>[D,A,] [D,A,][D,A,] [D,A,][D,D][=C,A,][C,A,] | [B,,G,]2 [A,,F,]2 [G,,G,]4 | %15
 [G,B,G]>[G,B,G] [G,B,G][G,DG][K:bass] [D,D][D,A,][D,D][D,A,] | %16
[M:8/4] [A,,A,]2 [A,,A,]2 [D,A,]4 z8 |] %17

